assets/Money-mouth face/Flat/money-mouth_face_flat.svg

<svg width="32" height="32" viewBox="0 0 32 32" fill="none" xmlns="http://www.w3.org/2000/svg">
<path d="M15.9989 29.9978C25.3333 29.9978 29.9978 23.7303 29.9978 15.9989C29.9978 8.26751 25.3333 2 15.9989 2C6.66443 2 2 8.26751 2 15.9989C2 23.7303 6.66443 29.9978 15.9989 29.9978Z" fill="#FFB02E"/>
<path d="M15.9988 26C8.99878 26 8.99878 19 8.99878 19H22.9988C22.9988 19 22.9988 26 15.9988 26Z" fill="#BB1D80"/>
<path d="M16.0155 31C21.0155 31 20.8855 24.8 21.0155 23.75C21.1155 22.9 20.6655 22.47 20.1755 22.18C19.6855 21.89 18.2155 21.62 16.0155 21.62C13.8155 21.62 12.3555 21.89 11.8555 22.18C11.3555 22.47 10.9055 22.9 11.0155 23.75C11.1455 24.8 11.0155 31 16.0155 31Z" fill="#00D26A"/>
<path d="M22.8588 20.43C22.9488 19.97 22.9988 19.49 22.9988 19C18.3388 19 11.8388 19 8.99878 19C8.99878 19.49 9.04878 19.96 9.13878 20.43H22.8588Z" fill="white"/>
<path d="M10.75 6C11.1642 6 11.5 6.33579 11.5 6.75V7.55001C12.6411 7.78164 13.5 8.79052 13.5 10V10.25C13.5 10.6642 13.1642 11 12.75 11C12.3358 11 12 10.6642 12 10.25V10C12 9.44772 11.5523 9 11 9H10.5C9.94772 9 9.5 9.44772 9.5 10V10.2051C9.5 10.7095 9.87554 11.1349 10.376 11.1974L11.3101 11.3142C12.5612 11.4706 13.5 12.5341 13.5 13.7949V14C13.5 15.2095 12.6411 16.2184 11.5 16.45V17.25C11.5 17.6642 11.1642 18 10.75 18C10.3358 18 10 17.6642 10 17.25V16.45C8.85888 16.2184 8 15.2095 8 14V13.75C8 13.3358 8.33579 13 8.75 13C9.16421 13 9.5 13.3358 9.5 13.75V14C9.5 14.5523 9.94772 15 10.5 15H11C11.5523 15 12 14.5523 12 14V13.7949C12 13.2905 11.6245 12.8651 11.124 12.8026L10.1899 12.6858C8.93884 12.5294 8 11.4659 8 10.2051V10C8 8.79052 8.85888 7.78164 10 7.55001V6.75C10 6.33579 10.3358 6 10.75 6Z" fill="#402A32"/>
<path d="M21.25 6C21.6642 6 22 6.33579 22 6.75V7.55001C23.1411 7.78164 24 8.79052 24 10V10.25C24 10.6642 23.6642 11 23.25 11C22.8358 11 22.5 10.6642 22.5 10.25V10C22.5 9.44772 22.0523 9 21.5 9H21C20.4477 9 20 9.44772 20 10V10.2051C20 10.7095 20.3755 11.1349 20.876 11.1974L21.8101 11.3142C23.0612 11.4706 24 12.5341 24 13.7949V14C24 15.2095 23.1411 16.2184 22 16.45V17.25C22 17.6642 21.6642 18 21.25 18C20.8358 18 20.5 17.6642 20.5 17.25V16.45C19.3589 16.2184 18.5 15.2095 18.5 14V13.75C18.5 13.3358 18.8358 13 19.25 13C19.6642 13 20 13.3358 20 13.75V14C20 14.5523 20.4477 15 21 15H21.5C22.0523 15 22.5 14.5523 22.5 14V13.7949C22.5 13.2905 22.1245 12.8651 21.624 12.8026L20.6899 12.6858C19.4388 12.5294 18.5 11.4659 18.5 10.2051V10C18.5 8.79052 19.3589 7.78164 20.5 7.55001V6.75C20.5 6.33579 20.8358 6 21.25 6Z" fill="#402A32"/>
<path d="M16.5 23C16.5 22.7239 16.2761 22.5 16 22.5C15.7239 22.5 15.5 22.7239 15.5 23V23.5C15.5 23.5216 15.5014 23.5429 15.504 23.5637C14.9224 23.744 14.5 24.2862 14.5 24.9271C14.5 25.4676 14.8054 25.9617 15.2889 26.2034L16.2639 26.691C16.4086 26.7633 16.5 26.9112 16.5 27.0729C16.5 27.3088 16.3088 27.5 16.0729 27.5H16C15.7239 27.5 15.5 27.2761 15.5 27C15.5 26.7239 15.2761 26.5 15 26.5C14.7239 26.5 14.5 26.7239 14.5 27C14.5 27.6557 14.9207 28.2131 15.5068 28.417C15.5023 28.444 15.5 28.4717 15.5 28.5V29C15.5 29.2761 15.7239 29.5 16 29.5C16.2761 29.5 16.5 29.2761 16.5 29V28.5C16.5 28.4784 16.4986 28.4571 16.496 28.4363C17.0776 28.256 17.5 27.7138 17.5 27.0729C17.5 26.5324 17.1946 26.0383 16.7111 25.7966L15.7361 25.309C15.5914 25.2367 15.5 25.0888 15.5 24.9271C15.5 24.6912 15.6912 24.5 15.9271 24.5H16C16.2761 24.5 16.5 24.7239 16.5 25C16.5 25.2761 16.7239 25.5 17 25.5C17.2761 25.5 17.5 25.2761 17.5 25C17.5 24.3443 17.0793 23.7869 16.4932 23.583C16.4977 23.556 16.5 23.5283 16.5 23.5V23Z" fill="#402A32"/>
</svg>

<svg xmlns="http://www.w3.org/2000/svg" width="32" height="32" fill="none"><path fill="#FFB02E" d="M15.999 29.998c9.334 0 13.999-6.268 13.999-14 0-7.73-4.665-13.998-14-13.998C6.665 2 2 8.268 2 15.999c0 7.731 4.664 13.999 13.999 13.999Z"/><path fill="#BB1D80" d="M15.999 26c-7 0-7-7-7-7h14s0 7-7 7Z"/><path fill="#00D26A" d="M16.015 31c5 0 4.87-6.2 5-7.25.1-.85-.35-1.28-.84-1.57-.49-.29-1.96-.56-4.16-.56s-3.66.27-4.16.56c-.5.29-.95.72-.84 1.57.13 1.05 0 7.25 5 7.25Z"/><path fill="#fff" d="M22.859 20.43c.09-.46.14-.94.14-1.43h-14c0 .49.05.96.14 1.43h13.72Z"/><path fill="#402A32" d="M10.75 6a.75.75 0 0 1 .75.75v.8a2.5 2.5 0 0 1 2 2.45v.25a.75.75 0 0 1-1.5 0V10a1 1 0 0 0-1-1h-.5a1 1 0 0 0-1 1v.205a1 1 0 0 0 .876.992l.934.117a2.5 2.5 0 0 1 2.19 2.48V14a2.5 2.5 0 0 1-2 2.45v.8a.75.75 0 0 1-1.5 0v-.8A2.5 2.5 0 0 1 8 14v-.25a.75.75 0 0 1 1.5 0V14a1 1 0 0 0 1 1h.5a1 1 0 0 0 1-1v-.205a1 1 0 0 0-.876-.992l-.934-.117A2.5 2.5 0 0 1 8 10.206V10a2.5 2.5 0 0 1 2-2.45v-.8a.75.75 0 0 1 .75-.75ZM21.25 6a.75.75 0 0 1 .75.75v.8A2.5 2.5 0 0 1 24 10v.25a.75.75 0 0 1-1.5 0V10a1 1 0 0 0-1-1H21a1 1 0 0 0-1 1v.205a1 1 0 0 0 .876.992l.934.117a2.5 2.5 0 0 1 2.19 2.48V14a2.5 2.5 0 0 1-2 2.45v.8a.75.75 0 0 1-1.5 0v-.8a2.5 2.5 0 0 1-2-2.45v-.25a.75.75 0 0 1 1.5 0V14a1 1 0 0 0 1 1h.5a1 1 0 0 0 1-1v-.205a1 1 0 0 0-.876-.992l-.934-.117a2.5 2.5 0 0 1-2.19-2.48V10a2.5 2.5 0 0 1 2-2.45v-.8a.75.75 0 0 1 .75-.75ZM16.5 23a.5.5 0 0 0-1 0v.5c0 .022.001.043.004.064a1.428 1.428 0 0 0-.215 2.64l.975.487a.427.427 0 0 1-.191.809H16a.5.5 0 0 1-.5-.5.5.5 0 0 0-1 0 1.5 1.5 0 0 0 1.007 1.417.504.504 0 0 0-.007.083v.5a.5.5 0 0 0 1 0v-.5a.514.514 0 0 0-.004-.064 1.428 1.428 0 0 0 .215-2.64l-.975-.487a.427.427 0 0 1 .191-.809H16a.5.5 0 0 1 .5.5.5.5 0 0 0 1 0 1.5 1.5 0 0 0-1.007-1.417.504.504 0 0 0 .007-.083V23Z"/></svg>
